X: 1
T: John Burke's
M: 4/4
L: 1/8
R: reel
K: Ddor
|:DEGA Bdga|bagd BGDE|F2 =CF A,F=CF|FGAG ^FDCE|
DEGA Bdga|bagd BGDE|F2 AF =cF AF|^FGA^F G2 GE:|
A|:dAAA eAAG|^FD^FA dcAB|c2 B2 cAGF|ECEG c2 Bc|
dAAA eAAG|&quot;14&quot;^FD^FA dcAB|c2 B2 cded|^cAGE D2-DA:|
|&quot;Alternate measure 14&quot;^FAde f2 ed|
